.local/share/icons/Gruvbox-Plus-Dark/actions/16/osd-sbs-left.svg

<svg xmlns="http://www.w3.org/2000/svg" width="16" height="16" version="1.1">
 <defs>
  <style id="current-color-scheme" type="text/css">
   .ColorScheme-Text { color:#555555; } .ColorScheme-Highlight { color:#4285f4; } .ColorScheme-NeutralText { color:#ff9800; } .ColorScheme-PositiveText { color:#4caf50; } .ColorScheme-NegativeText { color:#f44336; }
  </style>
 </defs>
 <path style="fill:currentColor" class="ColorScheme-Text" d="m 10,3 v 10 h 3.599609 C 14.375209,13 15,12.363694 15,11.572266 V 4.4277344 C 15,3.6363058 14.375209,3 13.599609,3 Z"/>
 <path style="fill:currentColor;opacity:0.35" class="ColorScheme-Text" d="M 2.4003906,3 C 1.6247906,3 1,3.6363058 1,4.4277344 V 11.572266 C 1,12.363694 1.6247906,13 2.4003906,13 H 6 V 3 Z"/>
 <path style="fill:currentColor" class="ColorScheme-Text" d="M 7,1 V 15 H 9 V 1 Z"/>
</svg>

<svg width="16" height="16" version="1.1" xmlns="http://www.w3.org/2000/svg">
  <defs>
    <style id="current-color-scheme" type="text/css">.ColorScheme-Text { color:#ebdbb2; } .ColorScheme-Highlight { color:#458588; }</style>
  </defs>
  <path class="ColorScheme-Text" d="m10 3v10h3.6c0.7756 0 1.4-0.6363 1.4-1.428v-7.145c0-0.7914-0.6248-1.428-1.4-1.428zm-3-2v14h2v-14z" fill="currentColor"/>
  <path class="ColorScheme-Text" d="m2.4 3c-0.7756 0-1.4 0.6363-1.4 1.428v7.145c0 0.7914 0.6248 1.428 1.4 1.428h3.6v-10z" fill="currentColor" opacity=".3"/>
</svg>
